dist/assets/img/svg/tm-icon-06.svg

<svg width="35" height="32" viewBox="0 0 35 32" fill="none" xmlns="http://www.w3.org/2000/svg">
<g opacity="0.5">
<path d="M33.4 28.9231V16.6154C33.4 15.7993 33.0629 15.0167 32.4627 14.4397C31.8626 13.8626 31.0487 13.5385 30.2 13.5385H22.2V12H19V21.2308H22.2V19.6923H27V28.9231H25.4V32H35V28.9231H33.4ZM30.8 28.9231H29.6V17.1538H22.2V16.0769H29.2C29.6243 16.0769 30.0313 16.239 30.3314 16.5275C30.6314 16.816 30.8 17.2074 30.8 17.6154V28.9231Z" fill="white"/>
<path d="M13.6 10.7692V12.3077H8.5V3.07692H10.2V0H0V3.07692H1.7V15.3846C1.7 16.2007 2.05821 16.9833 2.69584 17.5603C3.33346 18.1374 4.19826 18.4615 5.1 18.4615H13.6V20H17V10.7692H13.6ZM13.6 15.9231H6.1C5.64913 15.9231 5.21673 15.761 4.89792 15.4725C4.57911 15.184 4.4 14.7926 4.4 14.3846V3.07692H5.8V14.8462H13.6V15.9231Z" fill="white"/>
</g>
</svg>

<svg width="35" height="32" fill="none" xmlns="http://www.w3.org/2000/svg"><path d="M33.4 28.923V16.615c0-.816-.337-1.598-.937-2.175a3.266 3.266 0 00-2.263-.901h-8V12H19v9.23h3.2v-1.538H27v9.231h-1.6V32H35v-3.077h-1.6zm-2.6 0h-1.2v-11.77h-7.4v-1.076h7c.424 0 .831.162 1.131.45.3.289.469.68.469 1.088v11.308zM13.6 10.77v1.538H8.5V3.077h1.7V0H0v3.077h1.7v12.308c0 .816.358 1.598.996 2.175.637.577 1.502.902 2.404.902h8.5V20H17v-9.23h-3.4zm0 5.153H6.1c-.45 0-.883-.162-1.202-.45a1.468 1.468 0 01-.498-1.088V3.077h1.4v11.77h7.8v1.076z" opacity=".5" fill="#fff"/></svg>
